assets/img/podcast/listen/anchor.svg

<svg xmlns="http://www.w3.org/2000/svg" width="100" height="30" fill="none" viewBox="0 0 100 30"><rect width="100" height="30" fill="#fff"/><rect width="100" height="30" fill="#9013FE"/><path fill="#fff" d="M15.05 15.08C14.9801 15.3911 14.8474 15.6846 14.6599 15.9426C14.4725 16.2005 14.2343 16.4174 13.96 16.58L13.55 16.8L14.3 18.07L14.69 17.85C15.2646 17.5344 15.7419 17.0676 16.07 16.5C16.4099 15.8871 16.5953 15.2007 16.61 14.5C16.5941 13.7995 16.4088 13.1133 16.07 12.5C15.7646 11.903 15.3011 11.4015 14.73 11.05L14.34 10.84L13.59 12.1L14 12.33C14.2841 12.4976 14.5298 12.7231 14.7211 12.9918C14.9123 13.2606 15.0448 13.5666 15.11 13.89H10.21C10.1033 13.679 9.94231 13.5002 9.74354 13.3721C9.54478 13.244 9.31546 13.1712 9.0792 13.1612C8.84294 13.1512 8.60829 13.2044 8.39943 13.3153C8.19057 13.4261 8.01504 13.5907 7.89093 13.792C7.76682 13.9933 7.69862 14.224 7.69336 14.4604C7.6881 14.6968 7.74596 14.9303 7.86098 15.137C7.97601 15.3436 8.14404 15.5158 8.34776 15.6358C8.55148 15.7559 8.78353 15.8195 9.02 15.82C9.26951 15.8227 9.51468 15.7546 9.72707 15.6236C9.93946 15.4926 10.1104 15.3042 10.22 15.08H15.05ZM14.73 26C9.36 26 5 20.85 5 14.5C5 8.15 9.36 3 14.73 3C20.1 3 24.46 8.15 24.46 14.5C24.46 20.85 20.1 26 14.73 26ZM20.09 15.3C19.9874 16.558 19.5795 17.772 18.9016 18.8367C18.2238 19.9014 17.2964 20.7847 16.2 21.41L16.99 22.72C18.4172 21.884 19.6008 20.6892 20.4233 19.2542C21.2458 17.8192 21.6785 16.194 21.6785 14.54C21.6785 12.886 21.2458 11.2608 20.4233 9.8258C19.6008 8.3908 18.4172 7.19597 16.99 6.36L16.2 7.67C17.2964 8.29529 18.2238 9.17858 18.9016 10.2433C19.5795 11.308 19.9874 12.522 20.09 13.78V14.54V15.3ZM15.63 20.41L15.82 20.31C16.8034 19.7551 17.6135 18.9381 18.16 17.95C18.7541 16.8955 19.0771 15.7101 19.1 14.5C19.0837 13.2763 18.7605 12.0763 18.16 11.01C17.6135 10.0219 16.8034 9.20493 15.82 8.65L15.63 8.5L14.87 9.78L15.07 9.88C15.7492 10.2739 16.3197 10.8306 16.73 11.5C17.1797 12.2394 17.4598 13.0693 17.55 13.93V14.93C17.4656 15.8045 17.1853 16.6487 16.73 17.4C16.3098 18.078 15.725 18.6387 15.03 19.03L14.83 19.13L15.63 20.41Z"/><rect width="66" height="24" x="31" y="3" fill="#fff"/><path fill="#000" d="M51.6807 19H53.0332L50.5283 11.9541H49.1123L46.6123 19H47.8867L48.4922 17.1982H51.085L51.6807 19ZM49.752 13.2969H49.835L50.792 16.2021H48.7852L49.752 13.2969ZM54.1172 19H55.3281V15.8896C55.3281 15.1035 55.7822 14.6055 56.5049 14.6055C57.2422 14.6055 57.584 15.0156 57.584 15.8311V19H58.7949V15.543C58.7949 14.2686 58.1455 13.5508 56.9541 13.5508C56.1582 13.5508 55.6211 13.917 55.3672 14.5127H55.2842V13.6582H54.1172V19ZM64.8447 15.4551C64.7178 14.332 63.8877 13.5508 62.5156 13.5508C60.9092 13.5508 59.9668 14.5811 59.9668 16.3145C59.9668 18.0723 60.9141 19.1074 62.5205 19.1074C63.873 19.1074 64.7129 18.3555 64.8447 17.2373H63.6924C63.5654 17.7939 63.1455 18.0918 62.5156 18.0918C61.6904 18.0918 61.1924 17.4375 61.1924 16.3145C61.1924 15.2061 61.6855 14.5664 62.5156 14.5664C63.1797 14.5664 63.5801 14.9375 63.6924 15.4551H64.8447ZM66.0508 19H67.2617V15.8994C67.2617 15.1328 67.7061 14.6152 68.502 14.6152C69.2051 14.6152 69.5762 15.0303 69.5762 15.8408V19H70.7871V15.5527C70.7871 14.2832 70.0938 13.5605 68.9512 13.5605C68.1553 13.5605 67.584 13.9219 67.3301 14.5225H67.2422V11.5928H66.0508V19ZM74.5273 19.1074C76.124 19.1074 77.0957 18.0625 77.0957 16.3291C77.0957 14.6006 76.1191 13.5508 74.5273 13.5508C72.9404 13.5508 71.959 14.6055 71.959 16.3291C71.959 18.0625 72.9258 19.1074 74.5273 19.1074ZM74.5273 18.0918C73.6826 18.0918 73.1992 17.4473 73.1992 16.3291C73.1992 15.2158 73.6826 14.5664 74.5273 14.5664C75.3672 14.5664 75.8506 15.2158 75.8506 16.3291C75.8506 17.4473 75.3721 18.0918 74.5273 18.0918ZM78.3164 19H79.5273V15.9141C79.5273 15.167 80.0742 14.6787 80.8604 14.6787C81.0654 14.6787 81.3877 14.7129 81.4805 14.7471V13.624C81.3682 13.5898 81.1533 13.5703 80.9775 13.5703C80.2891 13.5703 79.7129 13.9609 79.5664 14.4883H79.4834V13.6582H78.3164V19Z"/></svg>

<svg xmlns="http://www.w3.org/2000/svg" width="100" height="30" fill="none"><path fill="#fff" d="M0 0H100V30H0z"/><path fill="#9013FE" d="M0 0H100V30H0z"/><path fill="#fff" d="M15.05 15.08a2.34 2.34 0 0 1-1.09 1.5l-.41.22.75 1.27.39-.22a3.59 3.59 0 0 0 1.38-1.35c.34-.613.525-1.3.54-2a4.34 4.34 0 0 0-.54-2 3.66 3.66 0 0 0-1.34-1.45l-.39-.21-.75 1.26.41.23a2.353 2.353 0 0 1 1.11 1.56h-4.9a1.33 1.33 0 1 0-1.19 1.93 1.32 1.32 0 0 0 1.2-.74h4.83zM14.73 26C9.36 26 5 20.85 5 14.5S9.36 3 14.73 3s9.73 5.15 9.73 11.5S20.1 26 14.73 26zm5.36-10.7a7.76 7.76 0 0 1-3.89 6.11l.79 1.31a9.48 9.48 0 0 0 0-16.36l-.79 1.31a7.76 7.76 0 0 1 3.89 6.11v1.52zm-4.46 5.11l.19-.1a6.1 6.1 0 0 0 2.34-2.36 7.31 7.31 0 0 0 .94-3.45 7.31 7.31 0 0 0-.94-3.49 6.1 6.1 0 0 0-2.34-2.36l-.19-.15-.76 1.28.2.1c.68.394 1.25.95 1.66 1.62.45.74.73 1.57.82 2.43v1a5.85 5.85 0 0 1-.82 2.47 4.73 4.73 0 0 1-1.7 1.63l-.2.1.8 1.28z"/><path fill="#fff" d="M31 3H97V27H31z"/><path fill="#000" d="M51.68 19h1.353l-2.505-7.046h-1.416L46.612 19h1.275l.605-1.802h2.593L51.681 19zm-1.928-5.703h.083l.957 2.905h-2.007l.967-2.905zM54.117 19h1.211v-3.11c0-.787.454-1.285 1.177-1.285.737 0 1.079.41 1.079 1.226V19h1.21v-3.457c0-1.274-.648-1.992-1.84-1.992-.796 0-1.333.366-1.587.962h-.083v-.855h-1.167V19zm10.728-3.545c-.127-1.123-.957-1.904-2.33-1.904-1.606 0-2.548 1.03-2.548 2.763 0 1.758.947 2.793 2.553 2.793 1.353 0 2.193-.752 2.325-1.87h-1.153c-.127.557-.547.855-1.176.855-.826 0-1.324-.654-1.324-1.777 0-1.109.493-1.749 1.324-1.749.664 0 1.064.371 1.176.89h1.153zM66.05 19h1.21v-3.1c0-.767.445-1.285 1.241-1.285.703 0 1.074.415 1.074 1.226V19h1.211v-3.447c0-1.27-.693-1.993-1.836-1.993-.796 0-1.367.362-1.62.963h-.089v-2.93h-1.191V19zm8.476.107c1.597 0 2.569-1.044 2.569-2.778 0-1.728-.977-2.778-2.569-2.778-1.587 0-2.568 1.054-2.568 2.778 0 1.733.967 2.778 2.568 2.778zm0-1.015c-.844 0-1.328-.645-1.328-1.763 0-1.113.484-1.763 1.328-1.763.84 0 1.324.65 1.324 1.763 0 1.118-.479 1.763-1.324 1.763zm3.79.908h1.21v-3.086c0-.747.547-1.235 1.333-1.235.205 0 .528.034.62.068v-1.123a2.085 2.085 0 0 0-.502-.054c-.689 0-1.265.39-1.412.918h-.083v-.83h-1.167V19z"/></svg>
